X:50
T:The Concertina
R:reel
M:4/4
L:1/8
K:Dmaj
|:A2FA BAFA|A2FA BAFA|B2BA B2BA|B2BA BAFA|
A2FA BAFA|A2FA BAFA|FABc d2dA|BAFE D4:|
|:Addd Addd|AddA BAFA|B2BA B2BA|B2BA BAFA|
Addd Addd|AddA BAFA|FABc d2dA|BAFE D4:|

